X:913
T:White Cockade, The
R:Country Dance
B:The Athole Collection
M:C|
L:1/8
K:G
GA|B2B2B2 AB|G2B2B2 ge|d2B2B2 AG|B2A2A2 GA|B2 Bd cBAG|
A2B2g3a|bagf efge|d2B2B2:|
|:Bc|d2B2g2B2|d2d2d3e|d2B2g2fg|a2A2A2GA|B2Bd cBAG|A2B2g3a|
bagf efge|d2B2B2:|

